assets/Older person/Dark/Flat/older_person_flat_dark.svg

<svg width="32" height="32" viewBox="0 0 32 32" fill="none" xmlns="http://www.w3.org/2000/svg">
<path d="M27.4148 8.07C26.8709 7.11 26.0106 6.44 25.0515 6.11C24.0033 5.75 23.1034 5.06 22.5299 4.11C21.7685 2.85 20.394 2 18.8217 2C18.2185 2 17.645 2.13 17.1209 2.35C16.409 2.66 15.608 2.66 14.896 2.35C14.3621 2.13 13.7885 2 13.1853 2C11.6328 2 10.2781 2.82 9.50683 4.05C8.90363 5.02 7.9939 5.74 6.92594 6.12C5.92721 6.47 5.04714 7.19 4.50328 8.22C3.72209 9.71 3.8803 11.47 4.77026 12.78C5.09658 13.26 5.27457 13.83 5.27457 14.41V15.5455C5.80934 15.1689 5.32476 16.2913 5.25 16.6179V21.9858C5.25 23.6509 6.24206 25.1344 7.75 25.75C10 25.75 22.2672 25.75 24.25 25.75C25.7579 25.1344 26.75 23.6509 26.75 21.9858V17.1179C26.6189 16.6108 25.8376 14.9271 26.7127 15.5366V14.41C26.7127 13.83 26.8907 13.26 27.217 12.78C28.1564 11.43 28.285 9.6 27.4148 8.07Z" fill="#9B9B9B"/>
<path d="M10 18C10 19.6569 8.65685 21 7 21C5.34315 21 4 19.6569 4 18C4 16.3431 5.34315 15 7 15C8.65685 15 10 16.3431 10 18Z" fill="#4E3233"/>
<path d="M28 18C28 19.6569 26.6569 21 25 21C23.3431 21 22 19.6569 22 18C22 16.3431 23.3431 15 25 15C26.6569 15 28 16.3431 28 18Z" fill="#4E3233"/>
<path d="M6.44104 15.0413L7.00433 23.65C7.48396 27.29 10.5816 30 14.2489 30H17.7662C21.4335 30 24.5311 27.29 25.0108 23.65L25.5491 15.055C25.5327 15.0519 25.5164 15.0488 25.5 15.046L25.6151 13.13C25.5953 11.7 24.468 10.52 23.0441 10.46H20.4336C18.6536 10.46 17.0418 9.40999 16.3101 7.76999C16.1222 7.29999 15.6673 6.98999 15.163 6.98999H12.7898C9.34861 6.98999 6.5 9.80999 6.5 13.29V15.032C6.48018 15.0349 6.46053 15.038 6.44104 15.0413Z" fill="#573739"/>
<path d="M15.2872 17.5266L14.2963 20.6961C14.0941 21.348 14.5794 22 15.2669 22H16.7331C17.4206 22 17.9059 21.338 17.7037 20.6961L16.7128 17.5266C16.5005 16.8245 15.5096 16.8245 15.2872 17.5266Z" fill="#3D2123"/>
<path d="M16 23.8954C15.0538 23.8954 14.1644 23.6727 13.417 23.2831C13.1615 23.1532 12.8871 23.4408 13.048 23.6727C13.6724 24.6191 14.7605 25.25 16 25.25C17.2395 25.25 18.3276 24.6191 18.952 23.6727C19.1129 23.4315 18.8385 23.1532 18.583 23.2831C17.8356 23.6727 16.9556 23.8954 16 23.8954Z" fill="#290118"/>
<path d="M9.01481 17.3672C9.30113 16.2402 10.3279 15.3999 11.5423 15.3999C12.8061 15.3999 13.8625 16.2995 14.0994 17.4957C14.1488 17.7626 13.9415 17.9999 13.6749 17.9999H9.51834C9.18266 17.9999 8.93583 17.6934 9.01481 17.3672Z" fill="white"/>
<path d="M22.9852 17.3672C22.6989 16.2402 21.6721 15.3999 20.4577 15.3999C19.1841 15.3999 18.1375 16.2995 17.9006 17.4957C17.8512 17.7626 18.0585 17.9999 18.3251 17.9999H22.4817C22.8173 17.9999 23.0642 17.6934 22.9852 17.3672Z" fill="white"/>
<path d="M10.2588 17.557C10.2588 16.6312 11.0092 15.8926 11.9274 15.8926C12.8456 15.8926 13.586 16.6312 13.586 17.557C13.586 17.7145 13.5663 17.8623 13.5268 18.0002H10.3181C10.2786 17.8524 10.2588 17.7145 10.2588 17.557Z" fill="#7D4533"/>
<path d="M21.7412 17.557C21.7412 16.6312 20.9908 15.8926 20.0726 15.8926C19.1545 15.8926 18.4041 16.6312 18.414 17.557C18.414 17.7145 18.4337 17.8623 18.4732 18.0002H21.682C21.7214 17.8524 21.7412 17.7145 21.7412 17.557Z" fill="#7D4533"/>
<path d="M11.9274 16.6113C12.4506 16.6113 12.8752 17.0348 12.8752 17.5568C12.8752 17.7144 12.8357 17.8621 12.7666 18H11.0882C11.019 17.8621 10.9796 17.7144 10.9796 17.5568C10.9796 17.0348 11.4041 16.6113 11.9274 16.6113Z" fill="black"/>
<path d="M20.0627 16.6113C19.5395 16.6113 19.1149 17.0348 19.1149 17.5568C19.1149 17.7144 19.1544 17.8621 19.2235 18H20.902C20.9711 17.8621 21.0106 17.7144 21.0106 17.5568C21.0106 17.0348 20.586 16.6113 20.0627 16.6113Z" fill="black"/>
<path d="M11.6509 16.9201C11.6509 17.0858 11.5183 17.2201 11.3547 17.2201C11.1911 17.2201 11.0585 17.0858 11.0585 16.9201C11.0585 16.7544 11.1911 16.6201 11.3547 16.6201C11.5183 16.6201 11.6509 16.7544 11.6509 16.9201Z" fill="white"/>
<path d="M19.8456 16.9201C19.8456 17.0858 19.7129 17.2201 19.5494 17.2201C19.3858 17.2201 19.2532 17.0858 19.2532 16.9201C19.2532 16.7544 19.3858 16.6201 19.5494 16.6201C19.7129 16.6201 19.8456 16.7544 19.8456 16.9201Z" fill="white"/>
<path d="M17.1173 9C16.8451 8.70368 16.6098 8.36842 16.4204 8H13.5C13.2239 8 13 8.22386 13 8.5C13 8.77614 13.2239 9 13.5 9H17.1173Z" fill="#3D2123"/>
<path d="M20.4336 10.46C19.7329 10.46 19.0584 10.2973 18.4533 10H11.5C11.2239 10 11 10.2239 11 10.5C11 10.7761 11.2239 11 11.5 11H20.5C20.7761 11 21 10.7761 21 10.5C21 10.4865 20.9995 10.4732 20.9984 10.46H20.4336Z" fill="#3D2123"/>
<path d="M18.7187 18.6275C18.9244 18.4433 19.2405 18.4607 19.4247 18.6664C19.6202 18.8847 19.8018 19.036 20.0376 19.1402C20.2778 19.2463 20.6119 19.32 21.1322 19.32C21.4084 19.32 21.6322 19.5439 21.6322 19.82C21.6322 20.0961 21.4084 20.32 21.1322 20.32C20.5203 20.32 20.0383 20.2337 19.6335 20.0548C19.2243 19.8741 18.9321 19.6153 18.6798 19.3336C18.4955 19.1278 18.513 18.8117 18.7187 18.6275Z" fill="#3D2123"/>
<path d="M12.7183 18.6548C12.9086 18.4553 13.2247 18.4476 13.4246 18.6377C13.6247 18.828 13.6323 19.1448 13.442 19.3449L13.441 19.3459L13.4394 19.3476L13.4354 19.3517L13.4238 19.3635C13.4144 19.3728 13.4019 19.385 13.3863 19.3997C13.3551 19.429 13.3113 19.4683 13.2555 19.5142C13.1441 19.6059 12.983 19.7252 12.7762 19.8438C12.363 20.0807 11.7577 20.32 11 20.32C10.7239 20.32 10.5 20.0961 10.5 19.82C10.5 19.5439 10.7239 19.32 11 19.32C11.5423 19.32 11.977 19.1493 12.2788 18.9763C12.4295 18.8898 12.5447 18.8041 12.6201 18.742C12.6577 18.7111 12.6851 18.6864 12.7016 18.6708C12.7099 18.6631 12.7155 18.6575 12.7183 18.6548Z" fill="#3D2123"/>
<path d="M21.6778 12.1726C22.2531 12.3537 22.633 12.6551 22.9596 12.9396C23.1749 13.1272 23.1974 13.4538 23.0099 13.6691C22.8223 13.8844 22.4957 13.907 22.2804 13.7194C21.987 13.4639 21.7369 13.2753 21.3672 13.159C20.9894 13.04 20.4399 12.983 19.5428 13.0927C19.2593 13.1274 19.0014 12.9258 18.9668 12.6423C18.9321 12.3589 19.1338 12.101 19.4172 12.0663C20.4001 11.9461 21.1106 11.994 21.6778 12.1726Z" fill="#9B9B9B"/>
<path d="M10.3558 12.3871C10.0505 12.5071 9.80875 12.6358 9.64072 12.7363L9.36257 12.9214C9.13716 13.0967 9.09656 13.4216 9.27187 13.647C9.44673 13.8718 9.77039 13.9127 9.99572 13.739L10.0009 13.7352C10.0067 13.7309 10.017 13.7234 10.0318 13.7132C10.0613 13.6928 10.1084 13.6616 10.1718 13.6236C10.2988 13.5477 10.4895 13.4457 10.7342 13.3495C11.2237 13.157 11.9212 12.9905 12.7572 13.0927C13.0407 13.1274 13.2986 12.9258 13.3332 12.6423C13.3679 12.3589 13.1662 12.101 12.8828 12.0663C11.8388 11.9386 10.9663 12.147 10.3558 12.3871Z" fill="#9B9B9B"/>
</svg>

<svg xmlns="http://www.w3.org/2000/svg" width="32" height="32" fill="none"><path fill="#9B9B9B" d="M27.415 8.07a4.329 4.329 0 0 0-2.363-1.96c-1.049-.36-1.949-1.05-2.522-2A4.335 4.335 0 0 0 18.822 2c-.604 0-1.177.13-1.701.35-.712.31-1.513.31-2.225 0a4.472 4.472 0 0 0-1.71-.35c-1.553 0-2.908.82-3.68 2.05a4.999 4.999 0 0 1-2.58 2.07 4.37 4.37 0 0 0-2.423 2.1 4.457 4.457 0 0 0 .267 4.56c.327.48.505 1.05.505 1.63v1.136c.534-.377.05.745-.025 1.072v5.368c0 1.665.992 3.148 2.5 3.764h16.5c1.508-.616 2.5-2.1 2.5-3.764v-4.868c-.131-.507-.912-2.19-.037-1.581V14.41c0-.58.178-1.15.504-1.63a4.42 4.42 0 0 0 .198-4.71Z"/><path fill="#4E3233" d="M10 18a3 3 0 1 1-6 0 3 3 0 0 1 6 0ZM28 18a3 3 0 1 1-6 0 3 3 0 0 1 6 0Z"/><path fill="#573739" d="m6.441 15.041.563 8.609A7.3 7.3 0 0 0 14.25 30h3.517a7.3 7.3 0 0 0 7.245-6.35l.538-8.595-.049-.009.115-1.916c-.02-1.43-1.147-2.61-2.57-2.67h-2.611a4.516 4.516 0 0 1-4.124-2.69 1.238 1.238 0 0 0-1.147-.78H12.79c-3.441 0-6.29 2.82-6.29 6.3v1.742a2.66 2.66 0 0 0-.059.01Z"/><path fill="#3D2123" d="m15.287 17.527-.99 3.17a1.005 1.005 0 0 0 .97 1.303h1.466c.688 0 1.173-.662.97-1.304l-.99-3.17c-.213-.701-1.203-.701-1.426 0Z"/><path fill="#290118" d="M16 23.895a5.603 5.603 0 0 1-2.583-.612c-.255-.13-.53.158-.369.39A3.53 3.53 0 0 0 16 25.25a3.53 3.53 0 0 0 2.952-1.577c.16-.241-.114-.52-.369-.39a5.574 5.574 0 0 1-2.583.612Z"/><path fill="#fff" d="M9.015 17.367a2.607 2.607 0 0 1 5.085.128.428.428 0 0 1-.425.505H9.518a.512.512 0 0 1-.503-.633ZM22.985 17.367a2.617 2.617 0 0 0-2.527-1.967 2.6 2.6 0 0 0-2.557 2.096.428.428 0 0 0 .424.504h4.157a.512.512 0 0 0 .503-.633Z"/><path fill="#7D4533" d="M10.259 17.557a1.664 1.664 0 1 1 3.268.443h-3.209a1.656 1.656 0 0 1-.06-.443ZM21.741 17.557c0-.926-.75-1.664-1.668-1.664a1.65 1.65 0 0 0-1.659 1.664c0 .158.02.305.06.443h3.208c.04-.148.06-.285.06-.443Z"/><path fill="#000" d="M11.927 16.611a.947.947 0 0 1 .84 1.389h-1.679a.947.947 0 0 1 .84-1.389ZM20.063 16.611a.947.947 0 0 0-.84 1.389h1.679a.947.947 0 0 0-.84-1.389Z"/><path fill="#fff" d="M11.65 16.92c0 .166-.132.3-.295.3a.298.298 0 0 1-.296-.3c0-.166.132-.3.296-.3.163 0 .296.134.296.3ZM19.846 16.92c0 .166-.133.3-.297.3a.298.298 0 0 1-.296-.3c0-.166.133-.3.296-.3.164 0 .297.134.297.3Z"/><path fill="#3D2123" d="M17.117 9a4.557 4.557 0 0 1-.697-1H13.5a.5.5 0 0 0 0 1h3.617ZM20.434 10.46c-.701 0-1.376-.163-1.98-.46H11.5a.5.5 0 0 0 0 1h9a.5.5 0 0 0 .498-.54h-.564ZM18.719 18.628a.5.5 0 0 1 .706.038c.195.219.377.37.613.474.24.106.574.18 1.094.18a.5.5 0 1 1 0 1c-.612 0-1.094-.086-1.498-.265-.41-.18-.702-.44-.954-.721a.5.5 0 0 1 .039-.706ZM12.718 18.655a.5.5 0 0 1 .724.69h-.001l-.002.003-.004.004-.011.011a2.121 2.121 0 0 1-.168.151A3.562 3.562 0 0 1 11 20.32a.5.5 0 0 1-.001-1 2.562 2.562 0 0 0 1.702-.65l.016-.015Z"/><path fill="#9B9B9B" d="M21.678 12.173c.575.18.955.482 1.282.767a.517.517 0 0 1-.68.78c-.293-.256-.543-.445-.913-.561-.378-.119-.927-.176-1.824-.066a.517.517 0 1 1-.126-1.027c.983-.12 1.694-.072 2.26.107ZM10.356 12.387c-.306.12-.547.249-.715.35l-.278.184a.517.517 0 0 0 .633.818l.005-.004.03-.022a3.849 3.849 0 0 1 .702-.364 4.138 4.138 0 0 1 2.024-.256.517.517 0 1 0 .126-1.027 5.171 5.171 0 0 0-2.527.321Z"/></svg>
